X: 654
T: The old maids of Galway
C: anon.
O: Ireland
B: Francis O'Neill: "The Dance Music of Ireland" (1907) no. 654
R: Reel
Z: Transcribed by Frank Nordberg - http://www.musicaviva.com
F: http://www.musicaviva.com/abc/tunes/ireland/oneill-1001/oneill-1001-065
4.abc
M: C|
L: 1/8
K: G
e>B ({c}(3(B)AB) e2dB|A2GA dBgf|(3(efg) df e2dB|A2GA BGG2:|g2(fg) efde|g2
(bg) eaaf|
g2fg efdB|A2GA BGG2|g2fg efde|g2bg eaag|bgaf gedB|A2GA BGG2|]
W:
W:
W: From Musica Viva - http://www.musicaviva.com
W: the Internet center for free sheet music downloads.


